X:1
T:McPherson's Farewell
M:4/4
L:1/8
K:G
 D2| G3 A B2A-G|A-GA-B A2B-A| G3 A B2A-G| E6 D2| G3 A B2A-G|A-GA-B A2B-A|\
 G2 B2A-G E2| D6B-c| d3B-cB-A G| B2 A2 A2B-c| d3 Bc-BA-G| E6B-c| d3 Bc-BA-G|\
 B2 A2 A2B-A| G2 B2A-G E2| D6||
